X:1
T:Title
%%score ( 1 2 ) ( 3 4 )
L:1/8
Q:1/4=100
M:4/4
K:Ab
V:1 treble nm="Strings 1, SOPRANO ALTO"
V:2 treble 
V:3 bass nm="Strings 1, TENOR BASS"
V:4 bass 
V:1
 z4 z2 E>F | A6 z2 | c6 z2 | [FA]2 [=EG]2 [FA]2 [DF]2 | [CE]6 E>F | A6 z2 | c6 z2 | %7
w: 1.~Earth ly~|wealth~|fame~|nev er~ come~ to~|me,~ And~ a~|pal|fair~|
 [=Dc]2 [DB]2 [DB]2 [Dc]2 | [EB]6 E>F | A6 z2 | c6 z2 | [FA]2 [=EG]2 [FA]2 [DF]2 | [CE]6 A>c | %13
w: mine~ may~ nev er~|be;~ But~ let~|come~|may,~|Christ~ for~ me~ doth~|care,~ An y|
 e6 .f2 | c6 z2 | [Ec]2 [Ac]2 [Ac]2 [GB]2 | A2 F2 E2 A>c | e6 .f2 | c6 .B2 | %19
w: where~ is~|home,~|He~ is~ on ly~|there.~ * * * *|||
 [FA]2 [FB]2 [FA]2 [DF]2 | [CE]6 A>c | e2- [Ge-]2 [Ae]2 fe | c2- [Ac-]2 [Ac]2 [EA]2 | %23
w: ||||
 [=Dc]2 [DB]2 [DB]2 [Dc]2 | B6 z2 | A6 z2 | c6 z2 | [FA]2 [=EG]2 [FA]2 [DF]2 | [CE]6 A>c | e6 .f2 | %30
w: |||||||
 c6 z2 | [Ec]2 [Ac]2 [Ac]2 [GB]2 | A2 F2 E2 z2 |] %33
w: |||
V:2
 x8 | E2 D2 C2 [EA]2 | E2 AF E2 [=EB]2 | x8 | x8 | E2 D2 C2 [EA]2 | E2 AF E2 [=EB]2 | x8 | x8 | %9
 E2 D2 C2 [EA]2 | E2 AF E2 [=EB]2 | x8 | x8 | A2 G2 A2 A-[Ae] | A2 A2 A2 [EA]2 | x8 | x8 | %17
 A2 G2 A2 A-[Ae] | A2 A2 A2 _G-[Gc] | x8 | x8 | A2 z2 z2 A2 | A2 z2 z4 | x8 | E2 =D2 E2 E>F | %25
 E2 D2 C2 [EA]2 | E2 AF E2 [=EB]2 | x8 | x8 | A2 G2 A2 A-[Ae] | A2 A2 A2 [EA]2 | x8 | x8 |] %33
V:3
 z8 | [A,,C]2 [A,,F,]2 [A,,E,]2 [A,,C]2 | [A,,A,]2 F,G, [A,,A,]2 [C,A,]2 | %3
 [D,D]2 [D,D]2 [D,D]2 [D,A,]2 | [A,,A,]6 z2 | [A,,C]2 [A,,F,]2 [A,,E,]2 [A,,C]2 | %6
 [A,,A,]2 F,G, [A,,A,]2 [C,A,]2 | [B,,A,]2 [B,,F,]2 [B,,F,]2 [B,,A,]2 | [E,G,]6 z2 | %9
 [A,,C]2 [A,,F,]2 [A,,E,]2 [A,,C]2 | [A,,A,]2 A,-[C,A,] [A,,A,]2 [C,A,]2 | %11
 [D,D]2 [D,D]2 [D,D]2 [D,A,]2 | [A,,A,]6 z2 | [A,C]2 [E,B,]2 [A,C]2 DC | %14
 [A,E]2 [E,A,E]2 [A,,A,E]2 [C,A,]2 | [E,A,]2 [E,C]2 [E,E]2 [E,D]2 | C2 D2 C2 z2 | %17
 [A,C]2 [E,B,]2 [A,C]2 DC | [A,E]2 [A,E]2 [A,E]2 CE | [D,D]2 [D,D]2 [D,D]2 [D,A,]2 | A,4 z4 | %21
 [A,C]2 [E,B,]2 [A,C]2 DC | [A,E]2 [E,A,E]2 [A,,A,E]2 [C,A,]2 | %23
 [B,,A,]2 [B,,F,]2 [B,,F,]2 [B,,A,]2 | [E,G,]2 [B,,F,]2 [E,G,]2 z2 | %25
 [A,,C]2 [A,,F,]2 [A,,E,]2 [A,,C]2 | z2 A,2 z4 | [D,D]2 [D,D]2 [D,D]2 [D,A,]2 | [A,,A,]6 z2 | %29
 [A,C]2 [E,B,]2 [A,C]2 DC | [A,E]2 [E,A,E]2 [A,,A,E]2 [C,A,]2 | [E,A,]2 [E,C]2 [E,E]2 [E,D]2 | %32
 C2[K:treble] D2 C2 z2 |] %33
V:4
 x8 | x8 | z2 A,,2 z4 | x8 | x8 | x8 | z2 A,,2 z4 | x8 | x8 | x8 | z2 .E,2 z4 | x8 | x8 | %13
 z4 z2 A,2 | x8 | x8 | [A,,A,]6 z2 | z4 z2 A,2 | z4 z2 A,2 | x8 | A,,2 C,>E, A,2 z2 | z4 z2 A,2 | %22
 x8 | x8 | x8 | x8 | [A,,A,]2 E,C, [A,,A,]2 [C,A,]2 | x8 | x8 | z4 z2 A,2 | x8 | x8 | %32
 [A,,A,]6[K:treble] z2 |] %33

